%
(Header)
(Generated by gcodetools from Inkscape.)
(Using default header. To add your own header create file "header" in the output dir.)
M3
(Header end.)
G21 (All units in mm)

(Start cutting path id: path4136)
(Change tool to Graffiti)
(Add G00 here to change sprayer if needed)
G00 Z5.000000
G00 X136.982777 Y226.180957
M03 S1(Turn spray on)
G01 Z-0.125000 F100.0(Penetrate)
G02 X132.847002 Y205.389008 Z-0.125000 I-54.331980 J-0.000003 F400.000000
G02 X121.069309 Y187.762444 Z-0.125000 I-50.196205 J20.791947
G02 X103.442746 Y175.984750 Z-0.125000 I-38.418513 J38.418511
G02 X82.650796 Y171.848974 Z-0.125000 I-20.791949 J50.196204
G02 X61.858846 Y175.984749 Z-0.125000 I-0.000003 J54.331980
G02 X44.232282 Y187.762443 Z-0.125000 I20.791947 J50.196205
G02 X32.454588 Y205.389007 Z-0.125000 I38.418512 J38.418512
G02 X28.318813 Y226.180957 Z-0.125000 I50.196203 J20.791947
G02 X32.454589 Y246.972906 Z-0.125000 I54.331980 J0.000000
G02 X44.232283 Y264.599470 Z-0.125000 I50.196204 J-20.791949
G02 X61.858847 Y276.377162 Z-0.125000 I38.418511 J-38.418513
G02 X82.650796 Y280.512937 Z-0.125000 I20.791947 J-50.196205
G02 X103.442745 Y276.377162 Z-0.125000 I0.000000 J-54.331980
G02 X121.069308 Y264.599469 Z-0.125000 I-20.791949 J-50.196205
G02 X132.847001 Y246.972906 Z-0.125000 I-38.418512 J-38.418512
G02 X136.982777 Y226.180957 Z-0.125000 I-50.196205 J-20.791949
G01 X136.982777 Y226.180957 Z-0.125000
G00 Z5.000000
M05 (Turn spray off)
(End cutting path id: path4136)


(Footer)
M5
G00 X0.0000 Y0.0000
M2
(Using default footer. To add your own footer create file "footer" in the output dir.)
(end)
%