%
(Header)
(Generated by gcodetools from Inkscape.)
(Using default header. To add your own header create file "header" in the output dir.)
(Header end.)
G21 (All units in mm)

(Start cutting path id: path4988)
(Change tool to Graffiti)
(Add G00 here to change sprayer if needed)
G00 Z5.000000
G00 X74.990478 Y241.904768
M03 S1(Turn spray on)
G01 Z-0.125000 F100.0(Penetrate)
G02 X72.780809 Y230.796015 Z-0.125000 I-29.028571 J0.000000 F400.000000
G02 X66.488206 Y221.378469 Z-0.125000 I-26.818902 J11.108753
G02 X57.070660 Y215.085866 Z-0.125000 I-20.526299 J20.526299
G02 X45.961907 Y212.876197 Z-0.125000 I-11.108753 J26.818902
G02 X34.853154 Y215.085866 Z-0.125000 I-0.000001 J29.028571
G02 X25.435607 Y221.378469 Z-0.125000 I11.108753 J26.818903
G02 X19.143004 Y230.796015 Z-0.125000 I20.526299 J20.526299
G02 X16.933336 Y241.904768 Z-0.125000 I26.818902 J11.108753
G02 X19.143004 Y253.013522 Z-0.125000 I29.028571 J0.000000
G02 X25.435607 Y262.431068 Z-0.125000 I26.818902 J-11.108753
G02 X34.853154 Y268.723671 Z-0.125000 I20.526299 J-20.526299
G02 X45.961907 Y270.933339 Z-0.125000 I11.108753 J-26.818903
G02 X57.070660 Y268.723671 Z-0.125000 I-0.000000 J-29.028571
G02 X66.488206 Y262.431068 Z-0.125000 I-11.108753 J-26.818902
G02 X72.780809 Y253.013521 Z-0.125000 I-20.526299 J-20.526299
G02 X74.990478 Y241.904768 Z-0.125000 I-26.818902 J-11.108753
G01 X74.990478 Y241.904768 Z-0.125000
G00 Z5.000000
M05 (Turn spray off)
(End cutting path id: path4988)


(Footer)
M5
G00 X0.0000 Y0.0000
M2
(Using default footer. To add your own footer create file "footer" in the output dir.)
(end)
%