%
(Header)
(Generated by gcodetools from Inkscape.)
(Using default header. To add your own header create file "header" in the output dir.)
(Header end.)
G21 (All units in mm)

(Start cutting path id: path4136)
(Change tool to Graffiti)
(Add G00 here to change sprayer if needed)
G00 Z5.000000
G00 X47.574604 Y247.549207
M03 S1(Turn spray on)
G01 Z-0.125000 F100.0(Penetrate)
G02 X45.484184 Y246.685981 Z-0.125000 I-1.355110 J0.318851 F400.000000
G02 X44.147619 Y248.355558 Z-0.125000 I1.697266 J2.728507
G02 X45.235969 Y252.686586 Z-0.125000 I3.834977 J1.338563
G02 X49.187303 Y254.403177 Z-0.125000 I4.459116 J-4.858229
G02 X55.619726 Y251.643921 Z-0.125000 I0.580996 J-7.522886
G02 X57.855553 Y245.130156 Z-0.125000 I-7.731967 J-6.294573
G02 X53.484184 Y236.552030 Z-0.125000 I-11.080442 J0.243660
G02 X44.349199 Y233.841273 Z-0.125000 I-8.149584 J10.715919
G02 X33.607889 Y239.806617 Z-0.125000 I1.070039 J14.579906
G02 X30.439685 Y251.580963 Z-0.125000 I13.716790 J10.004289
G02 X37.991241 Y264.493827 Z-0.125000 I18.051927 J-1.892386
G02 X52.412708 Y268.111111 Z-0.125000 I11.858113 J-16.719629
G02 X67.501758 Y258.977344 Z-0.125000 I-2.711134 J-21.509307
G02 X71.563487 Y241.904754 Z-0.125000 I-19.721620 J-13.711415
G02 X60.849842 Y224.636688 Z-0.125000 I-24.958071 J3.527191
G02 X41.123797 Y220.133339 Z-0.125000 I-15.564458 J22.722356
G02 X21.674864 Y232.425396 Z-0.125000 I4.341298 J28.401384
G02 X16.731750 Y254.806365 Z-0.125000 I25.721945 J17.417368
G02 X30.601230 Y276.437446 Z-0.125000 I31.841035 J-5.153951
G02 X55.638110 Y281.819045 Z-0.125000 I19.270215 J-28.720571
G02 X79.452259 Y266.372837 Z-0.125000 I-5.965518 J-35.278123
G02 X85.271421 Y238.679349 Z-0.125000 I-31.718421 J-21.123038
G02 X68.248995 Y212.681449 Z-0.125000 I-38.713347 J6.776247
G02 X37.898395 Y206.425405 Z-0.125000 I-22.975859 J34.715640
G00 Z5.000000
M05 (Turn spray off)
(End cutting path id: path4136)


(Footer)
M5
G00 X0.0000 Y0.0000
M2
(Using default footer. To add your own footer create file "footer" in the output dir.)
(end)
%