%
(Header)
(Generated by gcodetools from Inkscape.)
(Using default header. To add your own header create file "header" in the output dir.)
(Header end.)
G21 (All units in mm)

(Start cutting path id: rect4467)
(Change tool to Graffiti)
(Add G00 here to change sprayer if needed)
G00 Z5.000000
G00 X25.964909 Y288.223466
M03 S1(Turn spray on)
G01 Z-0.125000 F100.0(Penetrate)
G01 X112.872698 Y288.223466 Z-0.125000 F400.000000
G02 X119.943772 Y285.294531 Z-0.125000 I-0.000000 J-10.000008
G02 X122.872707 Y278.223458 Z-0.125000 I-7.071074 J-7.071074
G01 X122.872707 Y191.315667 Z-0.125000
G02 X119.943772 Y184.244593 Z-0.125000 I-10.000008 J0.000000
G02 X112.872698 Y181.315659 Z-0.125000 I-7.071074 J7.071074
G01 X25.964909 Y181.315659 Z-0.125000
G02 X18.893835 Y184.244593 Z-0.125000 I0.000000 J10.000009
G02 X15.964900 Y191.315667 Z-0.125000 I7.071073 J7.071074
G01 X15.964900 Y278.223458 Z-0.125000
G02 X18.893835 Y285.294532 Z-0.125000 I10.000008 J-0.000000
G02 X25.964909 Y288.223466 Z-0.125000 I7.071074 J-7.071074
G01 X25.964909 Y288.223466 Z-0.125000
G00 Z5.000000
M05 (Turn spray off)
(End cutting path id: rect4467)


(Footer)
M5
G00 X0.0000 Y0.0000
M2
(Using default footer. To add your own footer create file "footer" in the output dir.)
(end)
%