%
(Header)
(Generated by gcodetools from Inkscape.)
(Using default header. To add your own header create file "header" in the output dir.)
(Header end.)
G21 (All units in mm)

(Start cutting path id: path4136)
(Change tool to Graffiti)
(Add G00 here to change sprayer if needed)
G00 Z0.000000
G00 X142.723814 Y270.933337
M03 S1(Turn spray on)
G01 Z-0.125000 F100.0(Penetrate)
G01 X130.009370 Y220.470707 Z-0.125000 F400.000000
G01 X164.371269 Y181.388819 Z-0.125000
G01 X112.449478 Y177.887161 Z-0.125000
G01 X85.898801 Y133.130086 Z-0.125000
G01 X66.523811 Y181.428573 Z-0.125000
G01 X15.752695 Y192.849068 Z-0.125000
G01 X55.700084 Y226.200832 Z-0.125000
G01 X50.872483 Y278.016162 Z-0.125000
G01 X94.936319 Y250.330199 Z-0.125000
G01 X142.723814 Y270.933337 Z-0.125000
G00 Z0.000000
M05 (Turn spray off)
(End cutting path id: path4136)


(Footer)
M5
G00 X0.0000 Y0.0000
M2
(Using default footer. To add your own footer create file "footer" in the output dir.)
(end)
%