%
(Header)
(Generated by gcodetools from Inkscape.)
(Using default header. To add your own header create file "header" in the output dir.)
(Header end.)
G21 (All units in mm)

(Start cutting path id: path4540)
(Change tool to Graffiti)
(Add G00 here to change sprayer if needed)
G00 Z5.000000
G00 X76.359066 Y274.160470
M03 S1(Turn spray on)
G01 Z-0.125000 F100.0(Penetrate)
G01 X71.044302 Y274.160470 Z-0.125000 F400.000000
G01 X71.044302 Y256.630694 Z-0.125000
G01 X69.066252 Y256.630694 Z-0.125000
G01 X69.066252 Y274.160470 Z-0.125000
G01 X63.751489 Y274.160470 Z-0.125000
G01 X63.751489 Y276.510234 Z-0.125000
G01 X76.359066 Y276.510234 Z-0.125000
G01 X76.359066 Y274.160470 Z-0.125000
G01 X76.359066 Y274.160470 Z-0.125000
G00 Z5.000000
M05 (Turn spray off)
(End cutting path id: path4540)


(Start cutting path id: path4538)
(Change tool to Graffiti)
(Add G00 here to change sprayer if needed)
G00 Z5.000000
G00 X62.572652 Y262.304839
M03 S1(Turn spray on)
G01 Z-0.125000 F100.0(Penetrate)
G02 X62.471440 Y261.161016 Z-0.125000 I-6.513933 J-0.000000 F400.000000
G02 X62.163056 Y260.008480 Z-0.125000 I-6.922706 J1.234789
G02 X61.663928 Y258.933679 Z-0.125000 I-5.819313 J2.049140
G02 X61.034168 Y258.085944 Z-0.125000 I-4.225050 J2.480892
G02 X60.167271 Y257.326160 Z-0.125000 I-4.252383 J3.977431
G02 X59.166011 Y256.750851 Z-0.125000 I-3.397511 J4.754041
G02 X58.077455 Y256.407050 Z-0.125000 I-1.968070 J4.336155
G02 X56.608530 Y256.270218 Z-0.125000 I-1.468926 J7.816251
G02 X55.016740 Y256.379729 Z-0.125000 I0.000000 J11.623450
G02 X53.711385 Y256.670745 Z-0.125000 I1.118373 J8.089560
G02 X52.466514 Y257.147247 Z-0.125000 I3.213784 J10.260458
G02 X51.103955 Y257.858980 Z-0.125000 I5.930116 J13.012892
G01 X51.103955 Y261.170010 Z-0.125000
G01 X51.243817 Y261.170010 Z-0.125000
G03 X52.472989 Y260.051158 Z-0.125000 I6.201602 J5.578474
G03 X53.851248 Y259.234124 Z-0.125000 I4.620466 J6.223268
G03 X55.363291 Y258.706060 Z-0.125000 I3.510299 J7.622488
G03 X56.628512 Y258.553227 Z-0.125000 I1.265221 J5.160625
G03 X58.361778 Y258.825740 Z-0.125000 I0.000000 J5.648303
G03 X59.485694 Y259.474442 Z-0.125000 I-0.948139 J2.940689
G03 X60.231544 Y260.522201 Z-0.125000 I-1.948345 J2.176279
G03 X60.514681 Y261.931013 Z-0.125000 I-3.363354 J1.408812
G03 X60.357918 Y263.198841 Z-0.125000 I-5.205197 J0.000000
G03 X60.025164 Y263.880250 Z-0.125000 I-1.778883 J-0.446736
G03 X59.468299 Y264.401207 Z-0.125000 I-1.831449 J-1.399585
G03 X58.556611 Y264.854868 Z-0.125000 I-2.272977 J-3.424918
G03 X57.799100 Y265.091927 Z-0.125000 I-3.412206 J-9.574746
G03 X56.928216 Y265.295449 Z-0.125000 I-3.370362 J-12.456919
G02 X56.062828 Y265.484936 Z-0.125000 I4.699347 J23.532841
G02 X55.080035 Y265.736030 Z-0.125000 I7.295747 J30.604726
G02 X53.282376 Y266.552464 Z-0.125000 I1.800737 J6.352236
G02 X52.142932 Y267.645214 Z-0.125000 I2.300780 J3.539538
G02 X51.469278 Y269.093512 Z-0.125000 I3.800111 J2.648383
G02 X51.193866 Y271.183211 Z-0.125000 I7.790134 J2.089699
G02 X51.626164 Y273.501596 Z-0.125000 I6.432820 J-0.000000
G02 X52.772312 Y275.268597 Z-0.125000 I4.785867 J-1.849086
G02 X54.531819 Y276.438142 Z-0.125000 I3.675394 J-3.621096
G02 X56.778364 Y276.870709 Z-0.125000 I2.246545 J-5.617444
G02 X58.330730 Y276.763176 Z-0.125000 I0.000000 J-11.258847
G02 X59.655529 Y276.470181 Z-0.125000 I-1.180227 J-8.478073
G02 X60.935155 Y276.003124 Z-0.125000 I-3.764418 J-12.300078
G02 X61.973245 Y275.482212 Z-0.125000 I-3.666938 J-8.602414
G01 X61.973245 Y272.358093 Z-0.125000
G01 X61.833382 Y272.358093 Z-0.125000
G03 X60.896466 Y273.200466 Z-0.125000 I-4.117086 J-3.636945
G03 X59.595587 Y273.946855 Z-0.125000 I-4.506356 J-6.347273
G03 X58.181972 Y274.429496 Z-0.125000 I-2.972508 J-6.394724
G03 X56.768374 Y274.587699 Z-0.125000 I-1.413598 J-6.236369
G03 X55.276529 Y274.337903 Z-0.125000 I-0.000000 J-4.579724
G03 X54.210893 Y273.706538 Z-0.125000 I1.000345 J-2.903400
G03 X53.510165 Y272.711914 Z-0.125000 I1.938471 J-2.109830
G03 X53.251837 Y271.436879 Z-0.125000 I3.017441 J-1.275035
G03 X53.396923 Y270.239772 Z-0.125000 I5.011214 J-0.000000
G03 X53.731365 Y269.487643 Z-0.125000 I2.267392 J0.557797
G03 X54.314290 Y268.919625 Z-0.125000 I1.672934 J1.133718
G03 X55.419701 Y268.406217 Z-0.125000 I2.444322 J3.816108
G03 X56.062393 Y268.232122 Z-0.125000 I4.699773 J16.076414
G03 X57.237910 Y267.952285 Z-0.125000 I13.361422 J53.518743
G02 X58.409385 Y267.659294 Z-0.125000 I-5.974932 J-26.378217
G02 X59.235942 Y267.404897 Z-0.125000 I-3.665411 J-13.379180
G02 X60.745223 Y266.620599 Z-0.125000 I-2.052341 J-5.793823
G02 X61.733479 Y265.629223 Z-0.125000 I-2.412302 J-3.392973
G02 X62.317278 Y264.359904 Z-0.125000 I-3.121788 J-2.204719
G02 X62.572652 Y262.304839 Z-0.125000 I-8.141135 J-2.055064
G01 X62.572652 Y262.304839 Z-0.125000
G00 Z5.000000
M05 (Turn spray off)
(End cutting path id: path4538)


(Start cutting path id: path4536)
(Change tool to Graffiti)
(Add G00 here to change sprayer if needed)
G00 Z5.000000
G00 X48.616405 Y256.630694
M03 S1(Turn spray on)
G01 Z-0.125000 F100.0(Penetrate)
G01 X38.816064 Y256.630694 Z-0.125000 F400.000000
G01 X38.816064 Y276.510234 Z-0.125000
G01 X48.616405 Y276.510234 Z-0.125000
G01 X48.616405 Y274.160470 Z-0.125000
G01 X40.794115 Y274.160470 Z-0.125000
G01 X40.794115 Y268.713289 Z-0.125000
G01 X48.616405 Y268.713289 Z-0.125000
G01 X48.616405 Y266.363524 Z-0.125000
G01 X40.794115 Y266.363524 Z-0.125000
G01 X40.794115 Y258.980458 Z-0.125000
G01 X48.616405 Y258.980458 Z-0.125000
G01 X48.616405 Y256.630694 Z-0.125000
G01 X48.616405 Y256.630694 Z-0.125000
G00 Z5.000000
M05 (Turn spray off)
(End cutting path id: path4536)


(Start cutting path id: path4534)
(Change tool to Graffiti)
(Add G00 here to change sprayer if needed)
G00 Z5.000000
G00 X36.798053 Y274.160470
M03 S1(Turn spray on)
G01 Z-0.125000 F100.0(Penetrate)
G01 X31.483289 Y274.160470 Z-0.125000 F400.000000
G01 X31.483289 Y256.630694 Z-0.125000
G01 X29.505239 Y256.630694 Z-0.125000
G01 X29.505239 Y274.160470 Z-0.125000
G01 X24.190477 Y274.160470 Z-0.125000
G01 X24.190477 Y276.510234 Z-0.125000
G01 X36.798053 Y276.510234 Z-0.125000
G01 X36.798053 Y274.160470 Z-0.125000
G01 X36.798053 Y274.160470 Z-0.125000
G00 Z5.000000
M05 (Turn spray off)
(End cutting path id: path4534)


(Footer)
M5
G00 X0.0000 Y0.0000
M2
(Using default footer. To add your own footer create file "footer" in the output dir.)
(end)
%